!!!COM: Mozart, Wolfgang Amadeus
!!!OTL: Musikalische Würfelspiele, Kontre-Tänze
!!!SCA: K<sup>6</sup> Anh. C30.01 (K<sup>3</sup> Anh. 294d)
**kern	**kern
*staff2	*staff2
*clefF4	*clefG2
*M2/4	*M2/4
*MM110	*MM110
*>[A,A1,A,A2,B]	*>[A,A1,A,A2,B]
*>norep[A,A2,B]	*>norep[A,A2,B]
*>A	*>A
=70	=70
16C	4cc
16GG	.
16AA	.
16BB	.
16C	8cc
16GG	.
16AA	8cc
16BB	.
=1	=1
4C	8gg
.	8gg
4r	8ee
.	8cc
=131	=131
16GG	8ff
16D	.
16BB	4dd
16D	.
16GG	.
16D	.
16BB	8b
16D	.
=37	=37
16C	8cc
16c	.
16B	8ee
16c	.
4C	4g
=43	=43
4D	16dd
.	16cc#
.	16dd
.	16ee
4C 4D	16ff#
.	16gg
.	16aa
.	16ff#
=123	=123
4G	8gg
.	8dd
4GG	8b
.	8g
=137	=137
4C	8ee
.	8ccc
4D	16bb
.	16aa
.	16gg
.	16ff#
=83	=83
*>A1	*>A1
4GG	4g 4b 4gg
16G	4r
16F	.
16E	.
16D	.
=83:|!	=83:|!
*>A2	*>A2
4GG	4g 4b 4gg
16GG	4r
16AA	.
16BB	.
16C#	.
=144||	=144||
*>B	*>B
4D	8d
.	16f#
.	16a
4D	8dd
.	8ff#
=157	=157
4G	16gg
.	16aa
.	16bb
.	16ccc
4GG	4ddd
=138	=138
16C	8gg
16E	.
16G	4ee
16E	.
16C	.
16E	.
16G	8cc
16E	.
=84	=84
16GG	8dd
16BB	.
16D	8b
16G	.
16GG	4g
16F	.
16E	.
16D	.
=42	=42
4C	8cc
.	16cc
.	16ee
4r	8gg
.	16gg
.	16ee
=32	=32
4C	8ccc
.	8gg
4r	8ee
.	8cc
=109	=109
16GG	8dd
16D	.
16BB	4ff
16D	.
16GG	.
16D	.
16BB	8b
16D	.
=146	=146
4C	4cc
4CC	4c
==	==
*-	*-
